themes/camp/images/settings.svg

<?xml version="1.0" encoding="UTF-8" standalone="no"?>
<svg width="26px" height="26px" viewBox="0 0 26 26" version="1.1" xmlns="http://www.w3.org/2000/svg" xmlns:xlink="http://www.w3.org/1999/xlink">
    <!-- Generator: Sketch 43.2 (39069) - http://www.bohemiancoding.com/sketch -->
    <title>settings</title>
    <desc>Created with Sketch.</desc>
    <defs></defs>
    <g id="Page-1" stroke="none" stroke-width="1" fill="none" fill-rule="evenodd">
        <g id="manual-intro" transform="translate(-1238.000000, -79.000000)" fill="#662664">
            <g id="nav-bar">
                <g id="settings" transform="translate(1238.000000, 79.000000)">
                    <path d="M10,13 C10,14.6569807 11.3430955,16 13.0001703,16 C14.6569045,16 16,14.6569807 16,13 C16,11.3433598 14.6569045,10 13.0001703,10 C11.3430955,10 10,11.3433598 10,13" id="Fill-4"></path>
                    <path d="M19.3967482,13 C19.3967482,16.5270216 16.5270216,19.3967482 13,19.3967482 C9.47335252,19.3967482 6.6036259,16.5270216 6.6036259,13 C6.6036259,9.47297842 9.47335252,6.6032518 13,6.6032518 C16.5270216,6.6032518 19.3967482,9.47297842 19.3967482,13 M25.1691223,10.2728058 L22.8882302,8.90434532 L23.533554,6.32379856 C23.6790791,5.74057554 23.5081151,5.12330935 23.0831367,4.69795683 L21.3024173,2.91723741 C20.8766906,2.49188489 20.2597986,2.32092086 19.6762014,2.46682014 L17.0960288,3.11176978 L15.7271942,0.831251799 C15.4178129,0.315741007 14.860777,0 14.2595971,0 L11.740777,0 C11.1395971,0 10.5821871,0.315741007 10.2728058,0.831251799 L8.90434532,3.11176978 L6.32417266,2.46682014 C5.74057554,2.32092086 5.12368345,2.49188489 4.69795683,2.91723741 L2.91723741,4.69795683 C2.49188489,5.12330935 2.32092086,5.74057554 2.46682014,6.32379856 L3.11214388,8.90434532 L0.831251799,10.2728058 C0.315741007,10.5821871 0,11.139223 0,11.740777 L0,14.259223 C0,14.860777 0.315741007,15.4178129 0.831251799,15.7271942 L3.11214388,17.0956547 L2.46682014,19.6762014 C2.32092086,20.2594245 2.49188489,20.8766906 2.91723741,21.3020432 L4.69795683,23.0827626 C5.12368345,23.5081151 5.74057554,23.6790791 6.32417266,23.5331799 L8.90434532,22.8882302 L10.2728058,25.1687482 C10.5821871,25.684259 11.1395971,26 11.740777,26 L14.2595971,26 C14.860777,26 15.4178129,25.684259 15.7271942,25.1687482 L17.0960288,22.8882302 L19.6762014,23.5331799 C20.2597986,23.6790791 20.8766906,23.5081151 21.3024173,23.0827626 L23.0831367,21.3020432 C23.5081151,20.8766906 23.6790791,20.2594245 23.533554,19.6762014 L22.8882302,17.0956547 L25.1691223,15.7271942 C25.6846331,15.4178129 26,14.860777 26,14.259223 L26,11.740777 C26,11.139223 25.6846331,10.5821871 25.1691223,10.2728058" id="Fill-1"></path>
                </g>
            </g>
        </g>
    </g>
</svg>

<svg width="26" height="26" viewBox="0 0 26 26" xmlns="http://www.w3.org/2000/svg"><title>settings</title><g fill="#662664" fill-rule="evenodd"><path d="M10 13a3 3 0 1 0 6 0 3 3 0 0 0-6 0"/><path d="M19.397 13A6.404 6.404 0 0 1 13 19.397 6.404 6.404 0 0 1 6.604 13 6.404 6.404 0 0 1 13 6.603 6.404 6.404 0 0 1 19.397 13m5.772-2.727l-2.28-1.369.645-2.58a1.714 1.714 0 0 0-.45-1.626l-1.782-1.78a1.713 1.713 0 0 0-1.626-.451l-2.58.645-1.369-2.28A1.712 1.712 0 0 0 14.26 0h-2.52c-.6 0-1.158.316-1.467.831l-1.369 2.28-2.58-.644a1.713 1.713 0 0 0-1.626.45l-1.78 1.781a1.712 1.712 0 0 0-.451 1.626l.645 2.58-2.28 1.369c-.516.31-.832.866-.832 1.468v2.518c0 .602.316 1.159.831 1.468l2.281 1.369-.645 2.58c-.146.583.025 1.2.45 1.626l1.781 1.78a1.713 1.713 0 0 0 1.626.451l2.58-.645 1.369 2.28c.31.516.867.832 1.468.832h2.519c.6 0 1.158-.316 1.467-.831l1.369-2.28 2.58.644c.584.146 1.2-.025 1.626-.45l1.781-1.781a1.714 1.714 0 0 0 .45-1.626l-.645-2.58 2.281-1.369c.516-.31.831-.866.831-1.468v-2.518c0-.602-.315-1.159-.83-1.468"/></g></svg>
